symbolic/48x48/places/folder-deeporange-visiting.svg

<svg xmlns="http://www.w3.org/2000/svg" width="48" height="48" version="1"><rect style="opacity:.2" width="40" height="26" x="4" y="17" rx="2" ry="2"/><path style="fill:#e95420" d="M4 34c0 1.108.892 2 2 2h36c1.108 0 2-.892 2-2V12c0-1.108-.892-2-2-2H24c-3 0-4-4-7-4H6c-1.108 0-2 .892-2 2"/><rect style="opacity:.2" width="40" height="26" x="4" y="15" rx="2" ry="2"/><rect style="fill:#b2bfd9" width="36" height="16" x="6" y="13" rx="2" ry="2"/><rect style="fill:#eb6637" width="40" height="26" x="4" y="16" rx="2" ry="2"/><path style="opacity:.1;fill:#f4f4f7" d="M6 6c-1.108 0-2 .892-2 2v1c0-1.108.892-2 2-2h11c3 0 4 4 7 4h18c1.108 0 2 .892 2 2v-1c0-1.108-.892-2-2-2H24c-3 0-4-4-7-4z"/><path style="fill:#522413" d="M6 16c-1.108 0-2 .892-2 2v1.309l38.908 22.464A1.988 1.988 0 0 0 44 40v-2.596L6.928 16H6zm7.857 0L44 33.404v-5L22.516 16h-8.659zm15.588 0L44 24.404v-5L38.104 16h-8.659zM4 23.309v5L27.713 42h8.66L4 23.309zm0 9v5L12.125 42h8.66L4 32.309z"/></svg>

<svg xmlns="http://www.w3.org/2000/svg" width="48" height="48" version="1">
 <rect style="opacity:0.2" width="40" height="26" x="4" y="17" rx="2" ry="2"/>
 <path style="fill:#e95420" d="M 4,34 C 4,35.108 4.892,36 6,36 H 42 C 43.108,36 44,35.108 44,34 V 12 C 44,10.892 43.108,10 42,10 H 24 C 21,10 20,6 17,6 H 6 C 4.892,6 4,6.892 4,8"/>
 <rect style="opacity:0.2" width="40" height="26" x="4" y="15" rx="2" ry="2"/>
 <rect style="fill:#b2bfd9" width="36" height="16" x="6" y="13" rx="2" ry="2"/>
 <rect style="fill:#eb6637" width="40" height="26" x="4" y="16" rx="2" ry="2"/>
 <path style="opacity:0.1;fill:#f4f4f7" d="M 6,6 C 4.892,6 4,6.892 4,8 V 9 C 4,7.892 4.892,7 6,7 H 17 C 20,7 21,11 24,11 H 42 C 43.108,11 44,11.892 44,13 V 12 C 44,10.892 43.108,10 42,10 H 24 C 21,10 20,6 17,6 Z"/>
 <path style="fill:#522413" d="M 6 16 C 4.892 16 4 16.892 4 18 L 4 19.309 L 42.908 41.773 C 43.554 41.443 44 40.778 44 40 L 44 37.404 L 6.9277 16 L 6 16 z M 13.857 16 L 44 33.404 L 44 28.404 L 22.516 16 L 13.857 16 z M 29.445 16 L 44 24.404 L 44 19.404 L 38.104 16 L 29.445 16 z M 4 23.309 L 4 28.309 L 27.713 42 L 36.373 42 L 4 23.309 z M 4 32.309 L 4 37.309 L 12.125 42 L 20.785 42 L 4 32.309 z"/>
</svg>
